X: 10608
T: Dovecote Park
R: jig
M: 6/8
K: Dmajor
|:f|{g}A2{GdGe}A {gBd}B2{G}A|{g}A>d{g}f {ag}a2g|{a}f2{GdG}f {g}A>d{g}f|a>f{g}d {gef}e2|
f|{g}A2{GdGe}A {gBd}B2{G}A|{g}A>d{g}f {ag}a2g|{a}f>ga {ef}e>c{d}A|{Gdc}d3 {gdG}d2:|
|:{gf}g|{a}f>ga {Gdc}d2e|{gfg}f>ed {ag}a2f|{g}e2{GdG}e {g}A>B{GdG}c|{g}e<gf {gef}e2|
{gf}g|{a}f>ga {Gdc}d2e|{gfg}f>ed {ag}a2g|{a}f>ga {ef}e>c{d}A|{Gdc}d3 {gdG}d2:|
|:f|{g}A>df {gfg}f>e{g}f|{g}A>d{g}f {ag}a2g|{gfg}f>ed {g}A>df|{gef}e3 {A}e2|
f|{g}A>df {gfg}f>e{g}f|a>fd {gBG}B2{gf}g|{a}f>ga {ef}e>c{d}A|{Gdc}d3 {gdG}d2:|
|:{gf}g|a>fd {g}A>df|{gfg}f>ed {gBG}B2{Gdc}d|{g}A>d{g}f a>f{g}d|{gef}e3 {A}e2|
{gf}g|a>fd {g}A>df|{gfg}f>ed {gBG}B2{gf}g|{a}f>ga {ef}e>c{d}A|{Gdc}d3 {gdG}d2:|

